X: 43220
T: With Ourselves
R: reel
M: 4/4
K: Edorian
D|E3B GE E2|DEED GFFD|E3B GE E2|(3Bcd ed e3f|
gB B2 gedB|AF F2 dBAF|E3B GE E2|DEFD E3:|
d|edef g2af|ge e2 dBAF|D2 (3FED ADFA|deed gffd|
edef g2af|ge e2 dBAF|D2 (3FED ADFA|dBAF E3d|
ed (3Bcd ed (3Bcd|gBfB eBdB|AD (3FED ADFA|deed gffd|
edef g2af|ge e2 dBAF|D2 (3FED ADFA|dBAF E3||

